assets/chat-bubble-stroke.svg

<svg fill="none" height="24" viewBox="0 0 29 24" width="29" xmlns="http://www.w3.org/2000/svg" xmlns:xlink="http://www.w3.org/1999/xlink"><clipPath id="a"><path d="m0 0h29v24h-29z"/></clipPath><mask id="b" fill="#fff"><path d="m21 0c4.4182.00005644 8 3.58176 8 8v8c0 4.4182-3.5818 7.9999-8 8h-8c-1.8182 0-3.49434-.6071-4.83789-1.6289-1.2804 1.0182-2.89918 1.6289-4.66211 1.6289-1.19988 0-2.33348-.2836-3.338867-.7852-.2514822-.1259-.1945229-.4913.072265-.581 2.770552-.932 4.766482-3.5491 4.766602-6.6338v-8c0-4.41828 3.58172-8 8-8z" fill="#fff"/></mask><g clip-path="url(#a)"><path d="m21 0v-1zm8 8h1zm-8 16v1zm-12.83789-1.6289.60534-.796-.61903-.4708-.60871.4841zm-4.66211 1.6289v1h.00001zm-3.338867-.7852-.447829.8942.001413.0007zm.072265-.581.318797.9478h.00005zm4.766602-6.6338h1zm16-16v1c3.866.00005 7 3.13405 7 7h1 1c0-4.97054-4.0295-8.999937-9-9zm8 8h-1v8h1 1v-8zm0 8h-1c0 3.8659-3.134 7-7 7v1 1c4.9705-.0001 9-4.0295 9-9zm-8 8v-1h-8v1 1h8zm-8 0v-1c-1.5918 0-3.05677-.5307-4.23255-1.4249l-.60534.796-.60534.796c1.51131 1.1493 3.39863 1.8329 5.44323 1.8329zm-4.83789-1.6289-.6224-.7827c-1.11084.8833-2.5121 1.4116-4.03972 1.4116l.00001 1 .00001 1c1.99825 0 3.83454-.6932 5.2845-1.8462zm-4.66211 1.6289v-1c-1.04061 0-2.02178-.2456-2.892452-.68l-.446415.8948-.446416.8949c1.140112.5688 2.426123.8903 3.785283.8903zm-3.338867-.7852.447828-.8941c.305801.1532.418729.4766.38476.7253-.031365.2297-.188224.4504-.441526.5356l-.318797-.9478-.3187961-.9478c-.5200909.1749-.8388229.6231-.9024939 1.0894-.066268.4854.143913 1.0544.701197 1.3336zm.072265-.581.318847.9478c3.164885-1.0647 5.447625-4.0542 5.447755-7.5816h-1-1c-.0001 2.6421-1.70924 4.8866-4.0854481 5.686zm4.766602-6.6338h1v-8h-1-1v8zm0-8h1c0-3.86599 3.13401-7 7-7v-1-1c-4.97056 0-9 4.02944-9 9zm8-8v1h8v-1-1h-8z" fill="#000" fill-opacity=".1" mask="url(#b)"/></g></svg>

<svg width="29" height="24" viewBox="0 0 29 24" fill="none" xmlns="http://www.w3.org/2000/svg">
<g clip-path="url(#clip0_2175_1862)">
<mask id="path-1-inside-1_2175_1862" fill="white">
<path d="M21 0C25.4182 5.64362e-05 29 3.58176 29 8V16C29 20.4182 25.4182 23.9999 21 24H13C11.1818 24 9.50566 23.3929 8.16211 22.3711C6.88171 23.3893 5.26293 24 3.5 24C2.30012 24 1.16652 23.7164 0.161133 23.2148C-0.0903492 23.0889 -0.0333899 22.7235 0.233398 22.6338C3.00395 21.7018 4.99988 19.0847 5 16V8C5 3.58172 8.58172 0 13 0H21Z"/>
</mask>
<path d="M21 0L21 -1H21V0ZM29 8L30 8V8L29 8ZM21 24L21 25L21 25L21 24ZM8.16211 22.3711L8.76745 21.5751L8.14842 21.1043L7.53971 21.5884L8.16211 22.3711ZM3.5 24L3.5 25L3.50001 25L3.5 24ZM0.161133 23.2148L-0.286696 24.109L-0.285283 24.1097L0.161133 23.2148ZM0.233398 22.6338L0.552195 23.5816L0.552245 23.5816L0.233398 22.6338ZM5 16L6 16V16H5ZM21 0L21 1C24.866 1.00005 28 4.13405 28 8L29 8L30 8C30 3.02946 25.9705 -0.999937 21 -1L21 0ZM29 8H28V16H29H30V8H29ZM29 16H28C28 19.8659 24.866 23 21 23L21 24L21 25C25.9705 24.9999 30 20.9705 30 16H29ZM21 24V23H13V24V25H21V24ZM13 24V23C11.4082 23 9.94323 22.4693 8.76745 21.5751L8.16211 22.3711L7.55677 23.1671C9.06808 24.3164 10.9554 25 13 25V24ZM8.16211 22.3711L7.53971 21.5884C6.42887 22.4717 5.02761 23 3.49999 23L3.5 24L3.50001 25C5.49826 25 7.33455 24.3068 8.78451 23.1538L8.16211 22.3711ZM3.5 24V23C2.45939 23 1.47822 22.7544 0.607548 22.32L0.161133 23.2148L-0.285283 24.1097C0.854829 24.6785 2.14084 25 3.5 25V24ZM0.161133 23.2148L0.608961 22.3207C0.914762 22.4739 1.02769 22.7973 0.993721 23.046C0.962356 23.2757 0.805497 23.4964 0.552195 23.5816L0.233398 22.6338L-0.0853981 21.686C-0.605489 21.8609 -0.924221 22.3091 -0.987892 22.7754C-1.05416 23.2608 -0.843979 23.8298 -0.286695 24.109L0.161133 23.2148ZM0.233398 22.6338L0.552245 23.5816C3.71713 22.5169 5.99987 19.5274 6 16L5 16L4 16C3.9999 18.6421 2.29076 20.8866 -0.0854481 21.686L0.233398 22.6338ZM5 16H6V8H5H4V16H5ZM5 8H6C6 4.13401 9.13401 1 13 1V0V-1C8.02944 -1 4 3.02944 4 8H5ZM13 0V1H21V0V-1H13V0Z" fill="black" fill-opacity="0.1" mask="url(#path-1-inside-1_2175_1862)"/>
</g>
<defs>
<clipPath id="clip0_2175_1862">
<rect width="29" height="24" fill="white"/>
</clipPath>
</defs>
</svg>
